src/static/media/javascript.svg

<svg height="96" viewBox="0 0 96 96" width="96" xmlns="http://www.w3.org/2000/svg"><g fill="#191a23" fill-rule="evenodd" transform="translate(35.913043 50)"><path d="m.18931676 29.1323031 5.74950561-3.4794932c1.10918756 1.9666286 2.11820124 3.630589 4.53847463 3.630589 2.31998 0 3.7826383-.9075281 3.7826383-4.4374658v-24.005963h7.060353v24.105779c0 7.3126956-4.2864895 10.6412124-10.5403231 10.6412124-5.64801987 0-8.92656891-2.9251976-10.59076768-6.4552548"/><path d="m25.1552794 28.3757516 5.7487901-3.3285168c1.5133418 2.4714335 3.4802087 4.2868472 6.9598211 4.2868472 2.9254362 0 4.7909366-1.4626584 4.7909366-3.4799701 0-2.4207505-1.9163029-3.2781915-5.1440496-4.6898087l-1.7646112-.7570287c-5.0939626-2.168169-8.4730434-4.8914682-8.4730434-10.64085465 0-5.29538381 4.0345043-9.33012675 10.3387825-9.33012675 4.488507 0 7.7161342 1.56354799 10.0357565 5.64861629l-5.4971628 3.53005719c-1.2104346-2.16840757-2.5212817-3.02561003-4.5384743-3.02561003-2.0677565 0-3.3790808 1.31120482-3.3790808 3.02561003 0 2.11820102 1.3113243 2.97576122 4.3369343 4.28708552l1.7649689.7564323c6.0014907 2.5722037 9.3805712 5.1943753 9.3805712 11.0947379 0 6.3548424-4.9927153 9.8343356-11.7000743 9.8343356-6.5561441 0-10.7925466-3.1266188-12.8599454-7.2118063"/></g></svg>

<?xml version="1.0" encoding="UTF-8"?>
<svg width="96px" height="96px" viewBox="0 0 96 96" version="1.1" xmlns="http://www.w3.org/2000/svg" xmlns:xlink="http://www.w3.org/1999/xlink">
    <!-- Generator: Sketch 52.4 (67378) - http://www.bohemiancoding.com/sketch -->
    <title>javascript</title>
    <desc>Created with Sketch.</desc>
    <g id="javascript" stroke="none" stroke-width="1" fill="none" fill-rule="evenodd">
        <g id="Group" transform="translate(35.913043, 50.000000)" fill="#191A23">
            <path d="M0.189316761,29.1323031 L5.93882237,25.6528099 C7.04800993,27.6194385 8.05702361,29.2833989 10.477297,29.2833989 C12.797277,29.2833989 14.2599353,28.3758708 14.2599353,24.8459331 L14.2599353,0.839970098 L21.3202883,0.839970098 L21.3202883,24.9457491 C21.3202883,32.2584447 17.0337988,35.5869615 10.7799652,35.5869615 C5.13194533,35.5869615 1.85339629,32.6617639 0.189197521,29.1317067" id="Path"></path>
            <path d="M25.1552794,28.3757516 L30.9040695,25.0472348 C32.4174113,27.5186683 34.3842782,29.334082 37.8638906,29.334082 C40.7893268,29.334082 42.6548272,27.8714236 42.6548272,25.8541119 C42.6548272,23.4333614 40.7385243,22.5759204 37.5107776,21.1643032 L35.7461664,20.4072745 C30.6522038,18.2391055 27.273123,15.5158063 27.273123,9.76641985 C27.273123,4.47103604 31.3076273,0.436293098 37.6119055,0.436293098 C42.1004125,0.436293098 45.3280397,1.99984109 47.647662,6.08490939 L42.1504992,9.61496658 C40.9400646,7.44655901 39.6292175,6.58935655 37.6120249,6.58935655 C35.5442684,6.58935655 34.2329441,7.90056137 34.2329441,9.61496658 C34.2329441,11.7331676 35.5442684,12.5907278 38.5698784,13.9020521 L40.3348473,14.6584844 C46.336338,17.2306881 49.7154185,19.8528597 49.7154185,25.7532223 C49.7154185,32.1080647 44.7227032,35.5875579 38.0153442,35.5875579 C31.4592001,35.5875579 27.2227976,32.4609391 25.1553988,28.3757516" id="Path"></path>
        </g>
    </g>
</svg>
